src/assets/controls/Pause.svg

<?xml version="1.0" encoding="UTF-8" standalone="no"?>
<svg
   version="1.1"
   id="svg1"
   width="96"
   height="96"
   viewBox="0 0 96 96"
   xmlns="http://www.w3.org/2000/svg"
   xmlns:svg="http://www.w3.org/2000/svg">
  <defs
     id="defs1" />
  <path
     fill-rule="evenodd"
     clip-rule="evenodd"
     d="M48 92C72.3005 92 92 72.3005 92 48C92 23.6995 72.3005 4 48 4C23.6995 4 4 23.6995 4 48C4 72.3005 23.6995 92 48 92ZM32 32.5V64.5C32 65.6046 32.8954 66.5 34 66.5H42C43.1046 66.5 44 65.6046 44 64.5V32.5C44 31.3954 43.1046 30.5 42 30.5H34C32.8954 30.5 32 31.3954 32 32.5ZM52.5 32.5V64.5C52.5 65.6046 53.3954 66.5 54.5 66.5H62.5C63.6046 66.5 64.5 65.6046 64.5 64.5V32.5C64.5 31.3954 63.6046 30.5 62.5 30.5H54.5C53.3954 30.5 52.5 31.3954 52.5 32.5Z"
     id="path1" stroke-width="0" />
</svg>

<svg xmlns="http://www.w3.org/2000/svg" viewBox="0 0 96 96"><path fill-rule="evenodd" d="M48 92c24.3 0 44-19.7 44-44S72.3 4 48 4 4 23.7 4 48s19.7 44 44 44ZM32 32.5v32a2 2 0 0 0 2 2h8a2 2 0 0 0 2-2v-32a2 2 0 0 0-2-2h-8a2 2 0 0 0-2 2Zm20.5 0v32a2 2 0 0 0 2 2h8a2 2 0 0 0 2-2v-32a2 2 0 0 0-2-2h-8a2 2 0 0 0-2 2Z" clip-rule="evenodd"/></svg>
